!!!OTL: Spiritus sancti gracia
**kern
*staff1
=--
*clefC1
*k[]
*met(c)
*M4/4
2.g
4a
2b
2b
=-
1a
2a
2b
=-
2a
2.g
4a
2b
=-
1g
2r
2g
=-
2b
2b
1cc
=-
2a
2dd
2cc
2b
=-
2cc
2a
1a
=-
!!linebreak:original
2r
2a
2cc
2b
=-
1a
2a
2.g
4a
4b
4cc
2dd
2g
=-
2dd
2a
1b
=-
2r
2dd
2b
2g
1cc
2cc
2a
=-
1g
1a
2b
1cc
2a
=-
0b
=-=
*-
!!title: @{OTL}, @{GTL}, ed. @{ENC}
!!!pag:
!!!GTL: Hymnbook C
!!!EFL: 
!!!YEM: Creative Commons CC/BY/NC/SA 4.0
!!!ENC: Marcin Konik
!!!END: 2015-0m-dd
!!!EED: Marcin Konik
!!!EEV: 
!!!ONB: Encoded in vim by Marcin Konik
!!!CharacterEncoding: utf-8
!!!RDF**kern: l=long note in original notation
!!!RDF**kern: i=editorial accidental
!!muse2ps: z14jc180F
!!!COM: Anonim
!!!CDT: [?]
!!!TXO: Polish
!!!ODT: 
!!!GTL: Hymnbook C
!!!ARL: Opactwo św. Wojciecha, Staniątki 
!!!voices:	1
